public/icon/github.svg

<svg width="20" height="20" viewBox="0 0 20 20" fill="none" xmlns="http://www.w3.org/2000/svg">
<path d="M5.96612 2.26402C6.4545 2.43216 7.05861 2.70014 7.64376 3.09962C8.35289 2.91455 9.11014 2.81501 9.89487 2.81501C10.6787 2.81501 11.4353 2.91435 12.1438 3.09906C12.7288 2.69978 13.3328 2.43194 13.821 2.26389C14.3712 2.07452 15.1554 1.76703 15.6209 2.28917C15.937 2.64365 16.0154 3.23858 16.0718 3.69216C16.1348 4.19901 16.1494 4.85968 15.9837 5.51472C16.6176 6.34334 17 7.3325 17 8.40948C17 10.0416 16.1268 11.4583 14.8344 12.4396C14.2395 12.8912 13.5479 13.2585 12.7895 13.5235C12.9588 13.9153 13.0527 14.3482 13.0527 14.8032V17.2008C13.0527 17.6422 12.6992 18 12.2632 18H7.52645C7.09045 18 6.73699 17.6422 6.73699 17.2008V16.4085C5.9828 16.502 5.35076 16.4193 4.81272 16.1883C4.25079 15.9469 3.85913 15.5726 3.56475 15.2149C3.28552 14.8757 2.9811 14.1118 2.54003 13.963C2.1264 13.8233 1.90285 13.3707 2.04072 12.952C2.1786 12.5332 2.62569 12.307 3.03932 12.4465C3.56493 12.6239 3.90716 13.0077 4.14215 13.3155C4.52034 13.8109 4.82933 14.4591 5.42937 14.7168C5.67612 14.8227 6.03864 14.8931 6.60456 14.8141L6.73703 14.7873C6.73918 14.3381 6.83286 13.9108 7.00016 13.5235C6.24175 13.2585 5.55012 12.8912 4.9553 12.4396C3.66284 11.4583 2.78969 10.0416 2.78969 8.40948C2.78969 7.33376 3.17119 6.34564 3.8037 5.51761C3.63737 4.86206 3.65188 4.20068 3.71484 3.69332C3.7161 3.68313 3.71736 3.6729 3.71863 3.66263C3.77617 3.19791 3.84397 2.65024 4.16574 2.28925C4.63119 1.76709 5.41599 2.07463 5.96612 2.26402Z" fill="black"/>
</svg>

<svg width="20" height="20" fill="none" xmlns="http://www.w3.org/2000/svg"><path d="M5.966 2.264a7.133 7.133 0 011.678.836 8.921 8.921 0 012.25-.285c.785 0 1.541.1 2.25.284a7.132 7.132 0 011.677-.835c.55-.19 1.334-.497 1.8.025.316.355.394.95.45 1.403.064.507.078 1.168-.087 1.823C16.618 6.343 17 7.332 17 8.409c0 1.633-.873 3.05-2.166 4.03a7.438 7.438 0 01-2.044 1.085c.169.391.263.824.263 1.28V17.2c0 .441-.354.799-.79.799H7.526a.794.794 0 01-.789-.8v-.791c-.754.093-1.386.01-1.924-.22-.562-.242-.954-.616-1.248-.974-.28-.34-.584-1.103-1.025-1.252a.802.802 0 01-.5-1.011.787.787 0 011-.505c.525.177.867.56 1.102.869.378.495.687 1.143 1.287 1.4.247.107.61.177 1.176.098l.132-.027c.002-.449.096-.876.263-1.264a7.436 7.436 0 01-2.045-1.083c-1.292-.982-2.165-2.398-2.165-4.03 0-1.076.381-2.064 1.014-2.892-.167-.656-.152-1.317-.09-1.825l.005-.03c.057-.465.125-1.013.447-1.374.465-.522 1.25-.214 1.8-.025z" fill="#000"/></svg>
